img/alisa.svg

<svg width="200" height="72" viewBox="0 0 200 72" fill="none" xmlns="http://www.w3.org/2000/svg">
<path d="M189.091 0H10.9091C4.88417 0 0 4.83532 0 10.8V61.2C0 67.1647 4.88417 72 10.9091 72H189.091C195.116 72 200 67.1647 200 61.2V10.8C200 4.83532 195.116 0 189.091 0Z" fill="black"/>
<mask id="mask0_1405_217" style="mask-type:alpha" maskUnits="userSpaceOnUse" x="18" y="10" width="43" height="41">
<path d="M26.2601 15.4725L18.904 36.0319C17.5991 39.6825 19.5252 43.6894 23.2146 44.9813L52.1313 50.5575L60.3775 27.4369C61.6824 23.7863 59.7544 19.7813 56.0669 18.4857L35.2998 11.205C34.5177 10.9313 33.7203 10.8 32.9362 10.8C30.0195 10.8 27.2885 12.5963 26.2601 15.4725Z" fill="white"/>
</mask>
<g mask="url(#mask0_1405_217)">
<path fill-rule="evenodd" clip-rule="evenodd" d="M26.2601 15.4725L18.904 36.0319C17.5991 39.6825 19.5252 43.6894 23.2146 44.9813L52.1313 50.5575L60.3775 27.4369C61.6824 23.7863 59.7544 19.7813 56.0669 18.4857L35.2998 11.205C34.5177 10.9313 33.7203 10.8 32.9362 10.8C30.0195 10.8 27.2885 12.5963 26.2601 15.4725Z" fill="url(#paint0_linear_1405_217)"/>
</g>
<mask id="mask1_1405_217" style="mask-type:alpha" maskUnits="userSpaceOnUse" x="16" y="20" width="37" height="36">
<path d="M23.4053 20.1744C19.517 20.1744 16.3636 23.2944 16.3636 27.1457V48.8282C16.3636 52.6776 19.517 55.7994 23.4053 55.7994H45.3068C49.1951 55.7994 52.3485 52.6776 52.3485 48.8282V27.1457C52.3485 23.2944 49.1951 20.1744 45.3068 20.1744H23.4053Z" fill="white"/>
</mask>
<g mask="url(#mask1_1405_217)">
<path fill-rule="evenodd" clip-rule="evenodd" d="M23.4053 20.1744C19.517 20.1744 16.3636 23.2944 16.3636 27.1457V48.8282C16.3636 52.6776 19.517 55.7994 23.4053 55.7994H45.3068C49.1951 55.7994 52.3485 52.6776 52.3485 48.8282V27.1457C52.3485 23.2944 49.1951 20.1744 45.3068 20.1744H23.4053Z" fill="url(#paint1_linear_1405_217)"/>
</g>
<path fill-rule="evenodd" clip-rule="evenodd" d="M25.6447 44.5774C27.0102 45.9237 30.6485 46.7299 34.3568 46.7449C38.0652 46.7299 41.7034 45.9237 43.067 44.5774C46.461 41.2362 38.2129 28.4281 34.3606 28.4093C30.4989 28.4281 22.2508 41.2362 25.6447 44.5774Z" fill="white"/>
<path fill-rule="evenodd" clip-rule="evenodd" d="M78.5964 14.1588H82.0655L87.6073 29.646H84.88L83.44 25.5852H76.8509L75.4109 29.646H73.0764L78.5964 14.1588ZM82.6327 23.3388L80.1455 16.362L77.6582 23.3388H82.6327ZM90.7382 25.6716C90.8982 24.9372 91.0036 23.9832 91.0546 22.8096C91.1055 21.636 91.1309 20.178 91.1309 18.4356H99.2691V29.646H96.7382V20.466H93.4436C93.4146 21.9492 93.3564 23.2596 93.2691 24.3972C93.1818 25.5348 93.0036 26.496 92.7346 27.2808C92.4655 28.0656 92.08 28.6668 91.5782 29.0844C91.0764 29.502 90.4036 29.7108 89.56 29.7108C89.4436 29.7108 89.3309 29.7072 89.2218 29.7C89.1127 29.6928 89 29.682 88.8836 29.6676V27.3348C89.0291 27.3636 89.1382 27.378 89.2109 27.378C89.6036 27.378 89.92 27.2376 90.16 26.9568C90.4 26.676 90.5927 26.2476 90.7382 25.6716ZM105.018 26.2548L110.255 18.4356H112.742V29.646H110.233V21.87L105.04 29.646H102.509V18.4356H105.018V26.2548ZM120.833 29.862C119.916 29.862 119.095 29.7288 118.367 29.4624C117.64 29.196 117.022 28.8144 116.513 28.3176C116.004 27.8208 115.611 27.2124 115.335 26.4924C115.058 25.7724 114.92 24.9516 114.92 24.03C114.92 23.1228 115.058 22.3092 115.335 21.5892C115.611 20.8692 116.004 20.2608 116.513 19.764C117.022 19.2672 117.647 18.8856 118.389 18.6192C119.131 18.3528 119.96 18.2196 120.876 18.2196C121.662 18.2196 122.349 18.306 122.938 18.4788C123.527 18.6516 123.996 18.8676 124.345 19.1268V21.2004C123.895 20.9124 123.404 20.6892 122.873 20.5308C122.342 20.3724 121.727 20.2932 121.029 20.2932C118.687 20.2932 117.516 21.5388 117.516 24.03C117.516 26.5212 118.665 27.7668 120.964 27.7668C121.705 27.7668 122.342 27.684 122.873 27.5184C123.404 27.3528 123.895 27.1404 124.345 26.8812V28.9548C123.967 29.1996 123.495 29.412 122.927 29.592C122.36 29.772 121.662 29.862 120.833 29.862ZM133.04 27.6804C132.924 27.9396 132.767 28.1988 132.571 28.458C132.375 28.7172 132.135 28.9512 131.851 29.16C131.567 29.3688 131.229 29.538 130.836 29.6676C130.444 29.7972 129.985 29.862 129.462 29.862C128.967 29.862 128.509 29.7936 128.087 29.6568C127.665 29.52 127.298 29.3148 126.985 29.0412C126.673 28.7676 126.425 28.4256 126.244 28.0152C126.062 27.6048 125.971 27.1332 125.971 26.6004C125.971 25.3764 126.429 24.4584 127.345 23.8464C128.262 23.2344 129.556 22.9284 131.229 22.9284H132.953V22.2372C132.953 21.5028 132.764 20.9952 132.385 20.7144C132.007 20.4336 131.382 20.2932 130.509 20.2932C129.767 20.2932 129.073 20.3976 128.425 20.6064C127.778 20.8152 127.207 21.0564 126.713 21.33V19.2348C127.164 18.99 127.76 18.7596 128.502 18.5436C129.244 18.3276 130.051 18.2196 130.924 18.2196C132.378 18.2196 133.502 18.5184 134.295 19.116C135.087 19.7136 135.484 20.6676 135.484 21.978V27.8316C135.484 27.9612 135.487 28.1088 135.495 28.2744C135.502 28.44 135.509 28.6092 135.516 28.782C135.524 28.9548 135.535 29.1168 135.549 29.268C135.564 29.4192 135.578 29.5452 135.593 29.646H133.258C133.215 29.4444 133.175 29.1636 133.138 28.8036C133.102 28.4436 133.076 28.1196 133.062 27.8316L133.04 27.6804ZM130.16 27.918C130.698 27.918 131.145 27.8064 131.502 27.5832C131.858 27.36 132.145 27.1008 132.364 26.8056C132.582 26.5104 132.735 26.2188 132.822 25.9308C132.909 25.6428 132.953 25.4412 132.953 25.326V24.57H131.382C130.378 24.57 129.644 24.7248 129.178 25.0344C128.713 25.344 128.48 25.7796 128.48 26.3412C128.48 26.8308 128.622 27.216 128.905 27.4968C129.189 27.7776 129.607 27.918 130.16 27.918ZM83.0909 46.476C83.0909 47.3976 82.9527 48.2184 82.6764 48.9384C82.4 49.6584 82.0073 50.2668 81.4982 50.7636C80.9891 51.2604 80.3709 51.642 79.6436 51.9084C78.9164 52.1748 78.0946 52.308 77.1782 52.308C76.3491 52.308 75.6473 52.218 75.0727 52.038C74.4982 51.858 74.0218 51.6456 73.6436 51.4008V49.3272C74.0946 49.5864 74.5855 49.7988 75.1164 49.9644C75.6473 50.13 76.2836 50.2128 77.0255 50.2128C79.0473 50.2128 80.1891 49.2696 80.4509 47.3832H75.8473V45.3528H80.4291C80.1236 43.6104 79.0037 42.7392 77.0691 42.7392C76.3564 42.7392 75.7418 42.8184 75.2255 42.9768C74.7091 43.1352 74.2255 43.3584 73.7745 43.6464V41.5728C74.1236 41.3136 74.5964 41.0976 75.1927 40.9248C75.7891 40.752 76.48 40.6656 77.2655 40.6656C79.1273 40.6656 80.5636 41.1732 81.5746 42.1884C82.5855 43.2036 83.0909 44.6328 83.0909 46.476ZM90.1855 42.912V52.092H87.6545V42.912H84.2291V40.8816H93.6764V42.912H90.1855ZM100.058 52.308C99.2582 52.308 98.5164 52.1784 97.8327 51.9192C97.1491 51.66 96.5564 51.282 96.0546 50.7852C95.5527 50.2884 95.16 49.68 94.8764 48.96C94.5927 48.24 94.4509 47.412 94.4509 46.476C94.4509 45.54 94.5927 44.712 94.8764 43.992C95.16 43.272 95.5527 42.6636 96.0546 42.1668C96.5564 41.67 97.1491 41.2956 97.8327 41.0436C98.5164 40.7916 99.2582 40.6656 100.058 40.6656C100.858 40.6656 101.6 40.7916 102.284 41.0436C102.967 41.2956 103.564 41.67 104.073 42.1668C104.582 42.6636 104.982 43.272 105.273 43.992C105.564 44.712 105.709 45.54 105.709 46.476C105.709 47.412 105.564 48.24 105.273 48.96C104.982 49.68 104.582 50.2884 104.073 50.7852C103.564 51.282 102.967 51.66 102.284 51.9192C101.6 52.1784 100.858 52.308 100.058 52.308ZM100.058 50.2128C100.931 50.2128 101.655 49.9104 102.229 49.3056C102.804 48.7008 103.091 47.7576 103.091 46.476C103.091 45.2088 102.804 44.2692 102.229 43.6572C101.655 43.0452 100.931 42.7392 100.058 42.7392C99.2 42.7392 98.4836 43.0452 97.9091 43.6572C97.3345 44.2692 97.0473 45.2088 97.0473 46.476C97.0473 47.7576 97.3345 48.7008 97.9091 49.3056C98.4836 49.9104 99.2 50.2128 100.058 50.2128ZM119.498 51.9624C119.251 52.6392 118.985 53.2368 118.702 53.7552C118.418 54.2736 118.091 54.7092 117.72 55.062C117.349 55.4148 116.92 55.6812 116.433 55.8612C115.945 56.0412 115.375 56.1312 114.72 56.1312C114.007 56.1312 113.396 56.016 112.887 55.7856V53.5392C113.091 53.6976 113.345 53.82 113.651 53.9064C113.956 53.9928 114.291 54.036 114.655 54.036C115.149 54.036 115.556 53.9316 115.876 53.7228C116.196 53.514 116.487 53.2008 116.749 52.7832L112.189 40.8816H114.916L118.08 49.5864L121.222 40.8816H123.578L119.498 51.9624ZM136.127 43.9704L132.789 51.012H130.935L127.793 43.9056V52.092H125.502V40.8816H128.971L132.069 47.8368L135.342 40.8816H138.658V52.092H136.127V43.9704ZM151.164 51.2712C151.004 51.372 150.807 51.4836 150.575 51.606C150.342 51.7284 150.065 51.84 149.745 51.9408C149.425 52.0416 149.055 52.128 148.633 52.2C148.211 52.272 147.731 52.308 147.193 52.308C145.113 52.308 143.56 51.7968 142.535 50.7744C141.509 49.752 140.996 48.3192 140.996 46.476C140.996 45.5688 141.135 44.7552 141.411 44.0352C141.687 43.3152 142.073 42.7068 142.567 42.21C143.062 41.7132 143.651 41.3316 144.335 41.0652C145.018 40.7988 145.767 40.6656 146.582 40.6656C147.425 40.6656 148.185 40.8024 148.862 41.076C149.538 41.3496 150.095 41.76 150.531 42.3072C150.967 42.8544 151.269 43.5312 151.436 44.3376C151.604 45.144 151.607 46.0872 151.447 47.1672H143.615C143.716 48.1896 144.058 48.9564 144.64 49.4676C145.222 49.9788 146.131 50.2344 147.367 50.2344C148.269 50.2344 149.022 50.1228 149.625 49.8996C150.229 49.6764 150.742 49.4424 151.164 49.1976V51.2712ZM146.582 42.6528C145.84 42.6528 145.215 42.876 144.705 43.3224C144.196 43.7688 143.862 44.4312 143.702 45.3096H149.025C149.055 44.4024 148.851 43.7328 148.415 43.3008C147.978 42.8688 147.367 42.6528 146.582 42.6528ZM163.291 51.2712C163.131 51.372 162.935 51.4836 162.702 51.606C162.469 51.7284 162.193 51.84 161.873 51.9408C161.553 52.0416 161.182 52.128 160.76 52.2C160.338 52.272 159.858 52.308 159.32 52.308C157.24 52.308 155.687 51.7968 154.662 50.7744C153.636 49.752 153.124 48.3192 153.124 46.476C153.124 45.5688 153.262 44.7552 153.538 44.0352C153.815 43.3152 154.2 42.7068 154.695 42.21C155.189 41.7132 155.778 41.3316 156.462 41.0652C157.145 40.7988 157.895 40.6656 158.709 40.6656C159.553 40.6656 160.313 40.8024 160.989 41.076C161.665 41.3496 162.222 41.76 162.658 42.3072C163.095 42.8544 163.396 43.5312 163.564 44.3376C163.731 45.144 163.735 46.0872 163.575 47.1672H155.742C155.844 48.1896 156.185 48.9564 156.767 49.4676C157.349 49.9788 158.258 50.2344 159.495 50.2344C160.396 50.2344 161.149 50.1228 161.753 49.8996C162.356 49.6764 162.869 49.4424 163.291 49.1976V51.2712ZM158.709 42.6528C157.967 42.6528 157.342 42.876 156.833 43.3224C156.324 43.7688 155.989 44.4312 155.829 45.3096H161.153C161.182 44.4024 160.978 43.7328 160.542 43.3008C160.105 42.8688 159.495 42.6528 158.709 42.6528ZM170.676 42.912V52.092H168.145V42.912H164.72V40.8816H174.167V42.912H170.676Z" fill="white"/>
<defs>
<linearGradient id="paint0_linear_1405_217" x1="28.3725" y1="48.6985" x2="49.3518" y2="13.8591" gradientUnits="userSpaceOnUse">
<stop stop-color="#FF3333"/>
<stop offset="1" stop-color="#FF00E2"/>
</linearGradient>
<linearGradient id="paint1_linear_1405_217" x1="26.3771" y1="57.5376" x2="42.0609" y2="18.3268" gradientUnits="userSpaceOnUse">
<stop stop-color="#C826FF"/>
<stop offset="1" stop-color="#5426FF"/>
</linearGradient>
</defs>
</svg>

<svg width="200" height="72" fill="none" xmlns="http://www.w3.org/2000/svg"><path d="M189.091 0H10.909C4.884 0 0 4.835 0 10.8v50.4C0 67.165 4.884 72 10.91 72h178.18c6.026 0 10.91-4.835 10.91-10.8V10.8C200 4.835 195.116 0 189.091 0z" fill="#000"/><mask id="a" style="mask-type:alpha" maskUnits="userSpaceOnUse" x="18" y="10" width="43" height="41"><path d="M26.26 15.473l-7.356 20.559c-1.305 3.65.621 7.657 4.31 8.95l28.917 5.575 8.246-23.12c1.305-3.65-.623-7.656-4.31-8.951L35.3 11.205a7.146 7.146 0 00-2.364-.405c-2.916 0-5.648 1.796-6.676 4.672z" fill="#fff"/></mask><g mask="url(#a)"><path fill-rule="evenodd" clip-rule="evenodd" d="M26.26 15.473l-7.356 20.559c-1.305 3.65.621 7.657 4.31 8.95l28.917 5.575 8.246-23.12c1.305-3.65-.623-7.656-4.31-8.951L35.3 11.205a7.146 7.146 0 00-2.364-.405c-2.916 0-5.648 1.796-6.676 4.672z" fill="url(#paint0_linear_1405_217)"/></g><mask id="b" style="mask-type:alpha" maskUnits="userSpaceOnUse" x="16" y="20" width="37" height="36"><path d="M23.405 20.174c-3.888 0-7.041 3.12-7.041 6.972v21.682c0 3.85 3.153 6.971 7.041 6.971h21.902c3.888 0 7.041-3.121 7.041-6.97V27.145c0-3.852-3.153-6.972-7.041-6.972H23.405z" fill="#fff"/></mask><g mask="url(#b)"><path fill-rule="evenodd" clip-rule="evenodd" d="M23.405 20.174c-3.888 0-7.041 3.12-7.041 6.972v21.682c0 3.85 3.153 6.971 7.041 6.971h21.902c3.888 0 7.041-3.121 7.041-6.97V27.145c0-3.852-3.153-6.972-7.041-6.972H23.405z" fill="url(#paint1_linear_1405_217)"/></g><path fill-rule="evenodd" clip-rule="evenodd" d="M25.645 44.577c1.365 1.347 5.003 2.153 8.712 2.168 3.708-.015 7.346-.821 8.71-2.168 3.394-3.34-4.854-16.149-8.706-16.168-3.862.02-12.11 12.827-8.716 16.168zm52.951-30.418h3.47l5.541 15.487H84.88l-1.44-4.06h-6.59l-1.44 4.06h-2.334l5.52-15.487zm4.037 9.18l-2.487-6.977-2.488 6.977h4.975zm8.105 2.333c.16-.735.266-1.689.317-2.862.05-1.174.076-2.632.076-4.374h8.138v11.21h-2.53v-9.18h-3.295a69.875 69.875 0 01-.175 3.931c-.087 1.138-.265 2.099-.534 2.884-.27.785-.655 1.386-1.157 1.803-.502.418-1.174.627-2.018.627a5.137 5.137 0 01-.676-.043v-2.333c.145.029.254.043.327.043.393 0 .709-.14.949-.421.24-.281.433-.71.578-1.285zm14.28.583l5.237-7.82h2.487v11.211h-2.509V21.87l-5.193 7.776h-2.531v-11.21h2.509v7.819zm15.815 3.607c-.917 0-1.738-.133-2.466-.4a5.152 5.152 0 01-1.854-1.144 5.023 5.023 0 01-1.178-1.826c-.277-.72-.415-1.54-.415-2.462 0-.907.138-1.72.415-2.44a5.023 5.023 0 011.178-1.826c.509-.497 1.134-.878 1.876-1.145.742-.266 1.571-.4 2.487-.4.786 0 1.473.087 2.062.26.589.173 1.058.389 1.407.648V21.2a5.782 5.782 0 00-1.472-.67c-.531-.158-1.146-.237-1.844-.237-2.342 0-3.513 1.246-3.513 3.737s1.149 3.737 3.448 3.737c.741 0 1.378-.083 1.909-.249a7.283 7.283 0 001.472-.637v2.074c-.378.245-.85.457-1.418.637-.567.18-1.265.27-2.094.27zm12.207-2.182a4.02 4.02 0 01-.469.778 3.473 3.473 0 01-1.735 1.21c-.392.13-.851.194-1.374.194-.495 0-.953-.068-1.375-.205a3.109 3.109 0 01-1.102-.616 2.9 2.9 0 01-.741-1.026c-.182-.41-.273-.882-.273-1.415 0-1.224.458-2.142 1.374-2.754.917-.612 2.211-.918 3.884-.918h1.724v-.69c0-.735-.189-1.243-.568-1.524-.378-.28-1.003-.42-1.876-.42-.742 0-1.436.104-2.084.312a9.657 9.657 0 00-1.712.724v-2.095c.451-.245 1.047-.475 1.789-.691a8.634 8.634 0 012.422-.324c1.454 0 2.578.298 3.371.896.792.598 1.189 1.552 1.189 2.862v5.854c0 .13.003.277.011.442l.021.508a8.204 8.204 0 00.077.864h-2.335a8.379 8.379 0 01-.12-.842c-.036-.36-.062-.684-.076-.972l-.022-.152zm-2.88.238c.538 0 .985-.112 1.342-.335.356-.223.643-.482.862-.777.218-.296.371-.587.458-.875.087-.288.131-.49.131-.605v-.756h-1.571c-1.004 0-1.738.155-2.204.464-.465.31-.698.746-.698 1.307 0 .49.142.875.425 1.156.284.28.702.421 1.255.421zM83.09 46.476c0 .922-.137 1.742-.414 2.462a5.027 5.027 0 01-1.178 1.826 5.152 5.152 0 01-1.854 1.144c-.728.267-1.55.4-2.466.4-.829 0-1.53-.09-2.105-.27-.575-.18-1.051-.392-1.43-.637v-2.074c.452.26.942.472 1.473.637.531.166 1.168.249 1.91.249 2.021 0 3.163-.943 3.425-2.83h-4.604v-2.03h4.582c-.305-1.743-1.425-2.614-3.36-2.614-.713 0-1.327.08-1.844.238-.516.158-1 .381-1.45.67v-2.074c.349-.26.821-.475 1.418-.648.596-.173 1.287-.26 2.073-.26 1.861 0 3.298.508 4.309 1.523 1.01 1.016 1.516 2.445 1.516 4.288zm7.096-3.564v9.18h-2.532v-9.18H84.23v-2.03h9.447v2.03h-3.49zm9.872 9.396c-.8 0-1.542-.13-2.225-.389a5.029 5.029 0 01-1.778-1.134 5.221 5.221 0 01-1.179-1.825c-.283-.72-.425-1.548-.425-2.484 0-.936.142-1.764.425-2.484a5.221 5.221 0 011.179-1.825 4.906 4.906 0 011.778-1.123 6.386 6.386 0 012.225-.378c.8 0 1.542.126 2.226.378.683.252 1.28.626 1.789 1.123a5.273 5.273 0 011.2 1.825c.291.72.436 1.548.436 2.484 0 .936-.145 1.764-.436 2.484a5.273 5.273 0 01-1.2 1.825 5.144 5.144 0 01-1.789 1.134 6.231 6.231 0 01-2.226.389zm0-2.095c.873 0 1.597-.303 2.171-.907.575-.605.862-1.548.862-2.83 0-1.267-.287-2.207-.862-2.819-.574-.612-1.298-.918-2.171-.918-.858 0-1.574.306-2.149.918-.575.612-.862 1.552-.862 2.819 0 1.282.288 2.225.862 2.83.575.604 1.291.907 2.149.907zm19.44 1.75a13.183 13.183 0 01-.796 1.792 5.294 5.294 0 01-.982 1.307c-.371.353-.8.62-1.287.8-.488.18-1.058.27-1.713.27-.713 0-1.324-.116-1.833-.346v-2.247c.204.159.458.281.764.367.305.087.64.13 1.004.13.494 0 .901-.104 1.221-.313.32-.209.611-.522.873-.94l-4.56-11.901h2.727l3.164 8.704 3.142-8.704h2.356l-4.08 11.08zm16.629-7.993l-3.338 7.042h-1.854l-3.142-7.106v8.186h-2.291v-11.21h3.469l3.098 6.955 3.273-6.955h3.316v11.21h-2.531V43.97zm15.037 7.301c-.16.101-.357.213-.589.335a5.07 5.07 0 01-.83.335c-.32.1-.69.187-1.112.259a8.624 8.624 0 01-1.44.108c-2.08 0-3.633-.511-4.658-1.534-1.026-1.022-1.539-2.455-1.539-4.298 0-.907.139-1.72.415-2.44a5.179 5.179 0 011.156-1.826 5.049 5.049 0 011.768-1.145 6.133 6.133 0 012.247-.4c.843 0 1.603.137 2.28.411a4.021 4.021 0 011.669 1.231c.436.547.738 1.224.905 2.03.168.807.171 1.75.011 2.83h-7.832c.101 1.023.443 1.79 1.025 2.3.582.512 1.491.767 2.727.767.902 0 1.655-.111 2.258-.334a9.99 9.99 0 001.539-.702v2.073zm-4.582-8.618c-.742 0-1.367.223-1.877.67-.509.446-.843 1.108-1.003 1.987h5.323c.03-.908-.174-1.577-.61-2.01-.437-.431-1.048-.647-1.833-.647zm16.709 8.618c-.16.101-.356.213-.589.335a5.056 5.056 0 01-.829.335c-.32.1-.691.187-1.113.259a8.624 8.624 0 01-1.44.108c-2.08 0-3.633-.511-4.658-1.534-1.026-1.022-1.538-2.455-1.538-4.298 0-.907.138-1.72.414-2.44a5.18 5.18 0 011.157-1.826 5.036 5.036 0 011.767-1.145 6.136 6.136 0 012.247-.4c.844 0 1.604.137 2.28.411a4.021 4.021 0 011.669 1.231c.437.547.738 1.224.906 2.03.167.807.171 1.75.011 2.83h-7.833c.102 1.023.443 1.79 1.025 2.3.582.512 1.491.767 2.728.767.901 0 1.654-.111 2.258-.334a10.02 10.02 0 001.538-.702v2.073zm-4.582-8.618c-.742 0-1.367.223-1.876.67-.509.446-.844 1.108-1.004 1.987h5.324c.029-.908-.175-1.577-.611-2.01-.437-.431-1.047-.647-1.833-.647zm11.967.259v9.18h-2.531v-9.18h-3.425v-2.03h9.447v2.03h-3.491z" fill="#fff"/><defs><linearGradient id="paint0_linear_1405_217" x1="28.372" y1="48.699" x2="49.352" y2="13.859" gradientUnits="userSpaceOnUse"><stop stop-color="#F33"/><stop offset="1" stop-color="#FF00E2"/></linearGradient><linearGradient id="paint1_linear_1405_217" x1="26.377" y1="57.538" x2="42.061" y2="18.327" gradientUnits="userSpaceOnUse"><stop stop-color="#C826FF"/><stop offset="1" stop-color="#5426FF"/></linearGradient></defs></svg>
